X:77
T:Scully Casey's
R:single jig
D:John Williams
Z:id:hn-slide-77
M:6/8
L:1/8
K:Dmix
d^cd AGE | F2G A2B | =cBc A2B | cBc AB^c |
d^cd AGE | F2G A2g | fed ed^c |1 d2e =f2e :|2 d3 d2A ||
d2e f2g | ~a3 afd | =c2d e2f | ~g3 gfe | d2e f2g | a3 afd | e^cA ABc | d3 d2A |
d2e f2g | a3 afd | =c2d e2f | g3 gfg | agf gfe | fed ed^c | d^cA ABc | d2e =f2e || 
P:variations
|: d3 ABG | F2G A2B | =cBc A2B | cBc AB^c |
d3 ABG | F2G A2e | fed ed^c |1 d2e =f2e :|2 d3 d2A||
d2e f2g | ~a3 afd | =c2d e2f | gaf ge^c | d2e f2g | a3 afd | e^cA ABc | d3 d2A |
d2e f2g | a3 afd | =c2d e2f | ~g3 gfg | agf gfe | fed ed^c | d^cA ABc | d2e =f2e || 
<end>
<start>
